app/images/dist/globe.svg

<svg width="48" height="48" viewBox="0 0 48 48" fill="none" xmlns="http://www.w3.org/2000/svg">
<path d="M4 24H44M4 24C4 35.0457 12.9543 44 24 44M4 24C4 12.9543 12.9543 4 24 4M44 24C44 35.0457 35.0457 44 24 44M44 24C44 12.9543 35.0457 4 24 4M24 4C29.0026 9.47671 31.8455 16.5841 32 24C31.8455 31.4159 29.0026 38.5233 24 44M24 4C18.9974 9.47671 16.1545 16.5841 16 24C16.1545 31.4159 18.9974 38.5233 24 44" stroke="#DC143C" stroke-width="1.5" stroke-linecap="round" stroke-linejoin="round"/>
</svg>

<svg width="48" height="48" fill="none" xmlns="http://www.w3.org/2000/svg"><path d="M4 24h40M4 24c0 11.046 8.954 20 20 20M4 24C4 12.954 12.954 4 24 4m20 20c0 11.046-8.954 20-20 20m20-20c0-11.046-8.954-20-20-20m0 0a30.6 30.6 0 0 1 8 20 30.6 30.6 0 0 1-8 20m0-40a30.6 30.6 0 0 0-8 20 30.6 30.6 0 0 0 8 20" stroke="#DC143C" stroke-width="1.5" stroke-linecap="round" stroke-linejoin="round"/></svg>
